azure-docs/iot-edge-alt.svg

<svg xmlns="http://www.w3.org/2000/svg" id="iot-edge-alt" viewBox="0 0 74 79">
    <path fill="#006DD6" d="M 70.0478 55.7621L 36.2507 55.7621L 37.0421 52.5811L 58.1277 52.5811C 66.8795 52.5811 74 45.4642 74 36.7195C 74.0153 30.5987 70.5099 25.1095 65.0924 22.4882C 65.3681 21.2122 65.506 19.9182 65.506 18.619C 65.506 8.35187 57.0963 5.35609e-09 46.759 5.35609e-09C 40.1364 5.35609e-09 34.1291 3.42753 30.7616 8.93211C 28.4128 7.30692 25.607 6.43399 22.6276 6.43399C 14.8102 6.43399 8.45312 12.7525 8.45312 20.5215C 8.45312 21.2378 8.50929 21.9618 8.61652 22.673C 3.39555 25.3842 2.73912e-09 30.8118 2.73912e-09 36.7118C 2.73912e-09 45.459 7.11788 52.5785 15.8672 52.5785L 35.2805 52.5785L 34.4865 55.7596L 3.95211 55.7596C 2.54283 55.7596 1.39907 56.9098 1.39907 58.327L 1.39907 76.4326C 1.39907 77.8498 2.54538 79 3.95211 79L 70.0478 79C 71.4546 79 72.5983 77.8498 72.5983 76.4326L 72.5983 58.327C 72.5983 56.9123 71.4546 55.7621 70.0478 55.7621ZM 15.8672 48.219C 9.51009 48.219 4.34017 43.0585 4.34017 36.7169C 4.34017 31.9954 7.36808 27.6847 11.8742 25.9927L 13.7762 25.279L 13.1941 23.32C 12.9312 22.4368 12.7933 21.4689 12.7933 20.5215C 12.7933 15.1607 17.205 10.7986 22.6276 10.7986C 25.4283 10.7986 27.9992 11.8898 29.8629 13.8744L 32.1556 16.3109L 33.4398 13.2146C 35.6737 7.83838 40.8997 4.36464 46.7564 4.36464C 54.6989 4.36464 61.1658 10.7576 61.1658 18.619C 61.1658 20.1236 60.9182 21.6255 60.4331 23.0864L 59.7412 25.1634L 61.8117 25.8515C 66.5195 27.4176 69.6751 31.7797 69.6623 36.7118C 69.6623 43.0533 64.4899 48.2139 58.1277 48.2139L 38.1297 48.2139L 41.127 36.1829L 41.2725 35.3228L 42.1124 35.1328C 42.9626 34.9402 43.7566 34.5911 44.4689 34.093L 45.3369 33.4871L 52.0412 39.9724L 51.8676 40.6939C 51.6685 41.5334 51.7247 42.3935 52.0336 43.1766C 52.6565 44.7838 54.1705 45.8236 55.8912 45.8262C 56.4095 45.8262 56.9175 45.7312 57.395 45.5386C 59.5242 44.7016 60.5812 42.278 59.7489 40.1393C 59.1234 38.5321 57.6069 37.4897 55.8887 37.4897C 55.3678 37.4897 54.8623 37.5873 54.3798 37.7773C 54.3492 37.7901 54.2649 37.8337 54.2113 37.8671C 54.1449 37.9056 54.076 37.9416 54.0096 37.9775L 53.1901 38.4011L 46.5164 31.944L 46.8586 31.125C 47.2007 30.2983 47.3717 29.4279 47.3717 28.5345C 47.3717 24.804 44.354 21.7693 40.647 21.7693C 38.9211 21.7693 37.277 22.4343 36.0158 23.6409L 35.2907 24.3419L 30.8561 21.5639L 30.925 20.7706C 30.9812 20.1005 30.8969 19.4714 30.6748 18.8989C 30.0468 17.2891 28.5328 16.2467 26.8146 16.2467C 26.2938 16.2467 25.7883 16.3443 25.3083 16.5343C 23.1816 17.3713 22.1247 19.7949 22.957 21.9336C 23.5825 23.5408 25.0964 24.5806 26.8172 24.5806C 27.3354 24.5806 27.8435 24.4831 28.3235 24.2931C 28.6094 24.1801 28.9004 24.0158 29.2323 23.7745L 29.9344 23.2635L 34.341 26.0235L 34.1189 26.9375C 33.9836 27.4895 33.9172 28.0133 33.9172 28.5422C 33.9172 29.2482 34.0295 29.9568 34.2542 30.6423L 34.5708 31.6051L 27.4376 36.1161L 26.7635 35.7207C 25.8623 35.1918 24.8079 35.1148 23.8607 35.4871C 22.1425 36.1649 21.2898 38.1213 21.9613 39.8517C 22.4693 41.1509 23.6922 41.9904 25.0785 41.9904C 25.4947 41.9904 25.9057 41.9134 26.2989 41.7593C 27.5933 41.2484 28.4409 39.9519 28.4077 38.5346L 28.3898 37.7978L 35.6788 33.1892L 36.3962 33.7798C 37.0089 34.2804 37.7033 34.6707 38.4692 34.9325L 39.5032 35.2894L 39.3271 36.3549L 36.3681 48.219L 15.8672 48.219ZM 68.2607 74.6405L 5.73924 74.6405L 5.73924 60.1268L 33.3989 60.1268L 32.9598 61.8855C 30.0161 61.9574 27.6418 64.3733 27.6418 67.3515C 27.6418 70.3734 30.0876 72.8305 33.0925 72.8305C 36.0975 72.8305 38.5407 70.3734 38.5407 67.3515C 38.5407 64.8842 36.8991 62.8175 34.6627 62.1319L 35.1631 60.1268L 68.2607 60.1268L 68.2607 74.6405Z" />
    <path fill="#006DD6" d="M 3.5232 -2.19385e-06L 0 -2.19385e-06L 0 3.54306L 3.5232 3.54306L 3.5232 -2.19385e-06Z" transform="translate(61.4873 62.4683)" />
    <path fill="#006DD6" d="M 3.5232 0L 0 0L 0 3.54306L 3.5232 3.54306L 3.5232 0Z" transform="translate(61.4873 68.5811)" />
</svg>

<svg xmlns="http://www.w3.org/2000/svg" viewBox="0 0 74 79"><path fill="#006DD6" d="M70.048 55.762H36.25l.791-3.18h21.086C66.879 52.581 74 45.463 74 36.718a15.752 15.752 0 0 0-8.908-14.23 18.3 18.3 0 0 0 .414-3.87C65.506 8.352 57.096 0 46.759 0c-6.623 0-12.63 3.428-15.997 8.932-2.35-1.625-5.155-2.498-8.134-2.498-7.818 0-14.175 6.318-14.175 14.087 0 .717.056 1.44.164 2.152C3.396 25.384 0 30.812 0 36.712c0 8.747 7.118 15.866 15.867 15.866h19.414l-.794 3.182H3.951A2.561 2.561 0 0 0 1.4 58.327v18.106A2.563 2.563 0 0 0 3.952 79h66.096a2.56 2.56 0 0 0 2.55-2.567V58.327a2.56 2.56 0 0 0-2.55-2.565zm-54.18-7.543c-6.358 0-11.528-5.16-11.528-11.502 0-4.722 3.028-9.032 7.534-10.724l1.902-.714-.582-1.959a9.94 9.94 0 0 1-.4-2.799c0-5.36 4.411-9.722 9.834-9.722 2.8 0 5.371 1.09 7.235 3.075l2.293 2.437 1.284-3.096c2.234-5.377 7.46-8.85 13.316-8.85 7.943 0 14.41 6.393 14.41 14.254 0 1.505-.248 3.006-.733 4.467l-.692 2.077 2.07.689c4.708 1.566 7.864 5.928 7.851 10.86 0 6.341-5.172 11.502-11.534 11.502H38.13l2.997-12.031.145-.86.84-.19a6.66 6.66 0 0 0 2.357-1.04l.868-.606 6.704 6.485-.173.722c-.2.84-.143 1.7.166 2.483a4.12 4.12 0 0 0 5.361 2.362c2.13-.837 3.186-3.261 2.354-5.4a4.124 4.124 0 0 0-5.37-2.362 1.63 1.63 0 0 0-.168.09c-.066.039-.135.075-.201.11l-.82.424-6.674-6.457.343-.819a6.735 6.735 0 0 0 .513-2.59c0-3.731-3.018-6.766-6.725-6.766-1.726 0-3.37.665-4.631 1.872l-.725.7-4.435-2.777.069-.793c.056-.67-.028-1.3-.25-1.872a4.125 4.125 0 0 0-5.367-2.365c-2.126.837-3.183 3.26-2.351 5.4a4.12 4.12 0 0 0 3.86 2.647c.518 0 1.026-.098 1.506-.288.286-.113.577-.277.91-.518l.701-.511 4.407 2.76-.222.913a6.66 6.66 0 0 0-.202 1.605c0 .706.112 1.415.337 2.1l.317.963-7.133 4.511-.674-.395a3.303 3.303 0 0 0-2.903-.234 3.382 3.382 0 0 0-1.9 4.365 3.332 3.332 0 0 0 3.117 2.138c.417 0 .828-.077 1.22-.23 1.295-.512 2.143-1.808 2.11-3.225l-.018-.737 7.289-4.609.717.59c.613.501 1.307.892 2.073 1.153l1.034.357-.176 1.066-2.959 11.864h-20.5zM68.26 74.641H5.739V60.127H33.4l-.44 1.758a5.462 5.462 0 0 0-5.317 5.467c0 3.021 2.446 5.478 5.45 5.478 3.005 0 5.449-2.457 5.449-5.478 0-2.468-1.642-4.535-3.878-5.22l.5-2.005h33.098V74.64z"/><path fill="#006DD6" d="M65.01 62.468h-3.523v3.543h3.523v-3.543zM65.01 68.581h-3.523v3.543h3.523v-3.543z"/></svg>
